src/assets/image/icons/mobile.svg

<svg width="62" height="62" viewBox="0 0 62 62" fill="none" xmlns="http://www.w3.org/2000/svg">
<g clip-path="url(#clip0_43_2072)">
<path d="M34 0H8C5.24316 0 3 2.24316 3 5V57C3 59.7568 5.24316 62 8 62H34C36.7568 62 39 59.7568 39 57V44.4038C39.1528 44.4502 39.3052 44.501 39.459 44.541L40.2788 47H45.7202L46.54 44.541C47.7749 44.2192 48.957 43.728 50.0659 43.0752L52.3892 44.2368L56.2368 40.3892L55.0752 38.0659C55.7261 36.957 56.2178 35.7749 56.541 34.541L59 33.7212V28.2798L56.542 27.46C56.2192 26.2261 55.728 25.0439 55.0762 23.9351L56.2378 21.6118L52.3901 17.7642L50.0669 18.9258C48.958 18.2739 47.7759 17.7822 46.541 17.46L45.7212 15H40.2798L39.46 17.459C39.3052 17.499 39.1538 17.5498 39.001 17.5962V5C39 2.24316 36.7568 0 34 0ZM8 2H34C35.6538 2 37 3.34619 37 5V6H5V5C5 3.34619 6.34619 2 8 2ZM34 60H8C6.34619 60 5 58.6538 5 57V54H37V57C37 58.6538 35.6538 60 34 60ZM37 52H5V8H37V18.3652C36.6392 18.5381 36.2808 18.7212 35.9341 18.9248L35 18.458V10H7V50H35V43.542L35.9341 43.0752C36.2822 43.2798 36.6392 43.4619 37 43.6348V52ZM30.9238 23.9341C30.273 25.043 29.7808 26.2251 29.458 27.459L27 28.2788V33.7202L29.458 34.54C29.7808 35.7739 30.272 36.9561 30.9238 38.0649L29.7622 40.3882L33 43.627V48H9V12H33V18.373L29.7622 21.6099L30.9238 23.9341ZM40.4448 19.2788L41.001 19.1582L41.7212 17H44.2798L45 19.1582L45.5562 19.2788C46.9468 19.5811 48.2651 20.1299 49.4761 20.9082L49.9551 21.2168L51.9961 20.1958L53.8052 22.0049L52.7842 24.0449L53.0918 24.5239C53.8711 25.7349 54.419 27.0542 54.7212 28.4448L54.8418 29.001L57 29.7212V32.2798L54.8418 33L54.7212 33.5562C54.419 34.9468 53.8701 36.2661 53.0918 37.4771L52.7842 37.9561L53.8052 39.9961L51.9961 41.8052L49.9551 40.7842L49.4761 41.0928C48.2651 41.8711 46.9458 42.4199 45.5562 42.7222L45 42.8428L44.2788 45H41.7202L41 42.8418L40.4439 42.7212C39.0532 42.4189 37.7349 41.8701 36.5239 41.0918L36.0449 40.7832L34.0039 41.8042L32.1948 39.9951L33.2158 37.9551L32.9082 37.4761C32.1289 36.2651 31.5811 34.9458 31.2788 33.5552L31.1582 32.999L29 32.2788V29.7202L31.1582 29L31.2788 28.4439C31.5811 27.0532 32.1299 25.7339 32.9082 24.523L33.2158 24.0439L32.1948 22.0039L34.0039 20.1948L36.0449 21.2158L36.5239 20.9072C37.7349 20.1299 39.0542 19.5811 40.4448 19.2788ZM33 31C33 36.5142 37.4858 41 43 41C48.5142 41 53 36.5142 53 31C53 25.4858 48.5142 21 43 21C37.4858 21 33 25.4858 33 31ZM43 23C47.4111 23 51 26.5889 51 31C51 35.4111 47.4111 39 43 39C38.5889 39 35 35.4111 35 31C35 26.5889 38.5889 23 43 23ZM43 35C45.2061 35 47 33.2061 47 31C47 28.7939 45.2061 27 43 27C40.7939 27 39 28.7939 39 31C39 33.2061 40.7939 35 43 35ZM43 29C44.103 29 45 29.897 45 31C45 32.103 44.103 33 43 33C41.897 33 41 32.103 41 31C41 29.897 41.897 29 43 29ZM18 56H24V58H18V56ZM19.707 22.293L25.4141 28H11V26H20.5859L18.293 23.707L19.707 22.293ZM11 34H25.4141L19.707 39.707L18.293 38.293L20.5859 36H11V34ZM25 30V32H23V30H25ZM21 30V32H19V30H21ZM17 30V32H15V30H17Z" fill="url(#paint0_linear_43_2072)"/>
</g>
<defs>
<linearGradient id="paint0_linear_43_2072" x1="31" y1="62" x2="31" y2="0" gradientUnits="userSpaceOnUse">
<stop stop-color="#6582FD"/>
<stop offset="1" stop-color="#E13E91"/>
</linearGradient>
<clipPath id="clip0_43_2072">
<rect width="62" height="62" fill="white"/>
</clipPath>
</defs>
</svg>

<svg xmlns="http://www.w3.org/2000/svg" width="62" height="62" fill="none"><g clip-path="url(#a)"><path fill="url(#b)" d="M34 0H8C5.243 0 3 2.243 3 5v52c0 2.757 2.243 5 5 5h26c2.757 0 5-2.243 5-5V44.404c.153.046.305.097.459.137l.82 2.459h5.441l.82-2.459a13.8 13.8 0 0 0 3.526-1.466l2.323 1.162 3.848-3.848-1.162-2.323a14 14 0 0 0 1.466-3.525l2.459-.82V28.28l-2.458-.82a14 14 0 0 0-1.466-3.525l1.162-2.323-3.848-3.848-2.323 1.162a13.8 13.8 0 0 0-3.526-1.466l-.82-2.46H40.28l-.82 2.459c-.155.04-.306.09-.459.137V5A5.007 5.007 0 0 0 34 0M8 2h26c1.654 0 3 1.346 3 3v1H5V5c0-1.654 1.346-3 3-3m26 58H8c-1.654 0-3-1.346-3-3v-3h32v3c0 1.654-1.346 3-3 3m3-8H5V8h32v10.365c-.36.173-.72.356-1.066.56L35 18.458V10H7v40h28v-6.458l.934-.467c.348.205.705.387 1.066.56zm-6.076-28.066a14 14 0 0 0-1.466 3.525l-2.458.82v5.441l2.458.82a14 14 0 0 0 1.466 3.525l-1.162 2.323L33 43.627V48H9V12h24v6.373l-3.238 3.237zm9.52-4.655.557-.12.72-2.159h2.559l.72 2.158.556.12c1.39.303 2.71.852 3.92 1.63l.48.309 2.04-1.021 1.81 1.809-1.022 2.04.308.479a11.9 11.9 0 0 1 1.63 3.92l.12.557 2.158.72v2.559l-2.158.72-.12.556a11.9 11.9 0 0 1-1.63 3.921l-.308.48 1.021 2.04-1.809 1.808-2.04-1.02-.48.308a11.9 11.9 0 0 1-3.92 1.63l-.556.12L44.279 45H41.72L41 42.842l-.556-.12a11.9 11.9 0 0 1-3.92-1.63l-.48-.309-2.04 1.021-1.81-1.809 1.022-2.04-.308-.479a11.9 11.9 0 0 1-1.63-3.92l-.12-.557-2.158-.72V29.72l2.158-.72.12-.556c.303-1.39.852-2.71 1.63-3.921l.308-.48-1.021-2.04 1.809-1.808 2.04 1.02.48-.308a11.9 11.9 0 0 1 3.92-1.628M33 31c0 5.514 4.486 10 10 10s10-4.486 10-10-4.486-10-10-10-10 4.486-10 10m10-8c4.411 0 8 3.589 8 8s-3.589 8-8 8-8-3.589-8-8 3.589-8 8-8m0 12c2.206 0 4-1.794 4-4s-1.794-4-4-4-4 1.794-4 4 1.794 4 4 4m0-6c1.103 0 2 .897 2 2s-.897 2-2 2-2-.897-2-2 .897-2 2-2M18 56h6v2h-6zm1.707-33.707L25.414 28H11v-2h9.586l-2.293-2.293zM11 34h14.414l-5.707 5.707-1.414-1.414L20.586 36H11zm14-4v2h-2v-2zm-4 0v2h-2v-2zm-4 0v2h-2v-2z"/></g><defs><linearGradient id="b" x1="31" x2="31" y1="62" y2="0" gradientUnits="userSpaceOnUse"><stop stop-color="#6582FD"/><stop offset="1" stop-color="#E13E91"/></linearGradient><clipPath id="a"><path fill="#fff" d="M0 0h62v62H0z"/></clipPath></defs></svg>
